icons/outline/solar-panel-2.svg

<!--
tags: [energy, sun, power, ecology, electricity]
version: "2.7"
unicode: "f7be"
-->
<svg
  xmlns="http://www.w3.org/2000/svg"
  width="24"
  height="24"
  viewBox="0 0 24 24"
  fill="none"
  stroke="currentColor"
  stroke-width="2"
  stroke-linecap="round"
  stroke-linejoin="round"
>
  <path d="M8 2a4 4 0 1 0 8 0m-12 1h1m14 0h1m-8 6v1m5.2 -2.8l.707 .707m-11.107 -.707l-.7 .7m-1.82 13.1h15.44a1 1 0 0 0 .97 -1.243l-1.5 -6a1 1 0 0 0 -.97 -.757h-12.44a1 1 0 0 0 -.97 .757l-1.5 6a1 1 0 0 0 .97 1.243zm-.28 -4h16m-10 -4l-1 8m5 -8l1 8" />
</svg>

<!--
tags: [energy, sun, power, ecology, electricity]
version: "2.7"
unicode: "f7be"
-->
<svg
  xmlns="http://www.w3.org/2000/svg"
  width="24"
  height="24"
  viewBox="0 0 24 24"
  fill="none"
  stroke="currentColor"
  stroke-width="2"
  stroke-linecap="round"
  stroke-linejoin="round"
>
    <path d="M8 2a4 4 0 1 0 8 0M4 3h1M19 3h1M12 9v1M17.2 7.2l.707 .707M6.8 7.2l-.7 .7M4.28 21h15.44a1 1 0 0 0 .97 -1.243l-1.5 -6a1 1 0 0 0 -.97 -.757h-12.44a1 1 0 0 0 -.97 .757l-1.5 6a1 1 0 0 0 .97 1.243zM4 17h16M10 13l-1 8M14 13l1 8" />
</svg>
